img/sprite.svg

<?xml version="1.0" encoding="UTF-8"?>
<svg xmlns="http://www.w3.org/2000/svg" xmlns:xlink="http://www.w3.org/1999/xlink" width="0" height="0">
<symbol id="calendar-grey" width="14" height="14" viewBox="0 0 14 14" fill="none">
<g clip-path="url(#clip0_41399_345)">
<path d="M11.6667 1.74992H11.0834V0.583252H9.91675V1.74992H4.08342V0.583252H2.91675V1.74992H2.33341C1.69175 1.74992 1.16675 2.27492 1.16675 2.91659V12.2499C1.16675 12.8916 1.69175 13.4166 2.33341 13.4166H11.6667C12.3084 13.4166 12.8334 12.8916 12.8334 12.2499V2.91659C12.8334 2.27492 12.3084 1.74992 11.6667 1.74992ZM11.6667 12.2499H2.33341V4.66658H11.6667V12.2499Z" fill="#999999"/>
</g>
<defs>
<clipPath>
<rect width="14" height="14" fill="white"/>
</clipPath>
</defs>
</symbol>

<symbol id="calendar-white" width="14" height="14" viewBox="0 0 14 14" fill="none">
<g clip-path="url(#clip0_41399_382)">
<path d="M11.6666 1.74992H11.0833V0.583252H9.91663V1.74992H4.08329V0.583252H2.91663V1.74992H2.33329C1.69163 1.74992 1.16663 2.27492 1.16663 2.91659V12.2499C1.16663 12.8916 1.69163 13.4166 2.33329 13.4166H11.6666C12.3083 13.4166 12.8333 12.8916 12.8333 12.2499V2.91659C12.8333 2.27492 12.3083 1.74992 11.6666 1.74992ZM11.6666 12.2499H2.33329V4.66658H11.6666V12.2499Z" fill="white"/>
</g>
<defs>
<clipPath>
<rect width="14" height="14" fill="white"/>
</clipPath>
</defs>
</symbol>

<symbol id="icon-social-ok" width="30" height="30" viewBox="0 0 30 30" fill="none">
<g clip-path="url(#clip0_41399_288)">
<path d="M12.8527 9.99062C12.8527 11.2273 13.8552 12.2299 15.0919 12.2299C16.3286 12.2299 17.3311 11.2273 17.3311 9.99062C17.3311 8.75396 16.3286 7.7514 15.0919 7.7514C13.8552 7.7514 12.8527 8.75396 12.8527 9.99062Z" fill="#CACACA"/>
<path fill-rule="evenodd" clip-rule="evenodd" d="M15 30C23.2843 30 30 23.2843 30 15C30 6.71573 23.2843 0 15 0C6.71572 0 0 6.71573 0 15C0 23.2843 6.71572 30 15 30ZM9.67501 9.99055C9.67501 6.99892 12.1002 4.57364 15.0919 4.57364C18.0836 4.57364 20.5088 6.99892 20.5088 9.99055C20.5088 12.9822 18.0836 15.4077 15.0919 15.4077C12.1002 15.4077 9.67501 12.9822 9.67501 9.99055ZM20.5412 18.194C20.4724 18.2491 19.1729 19.2761 17.0043 19.7179L20.2777 22.9622C20.8534 23.5369 20.854 24.4695 20.2793 25.0451C19.7046 25.6207 18.7722 25.6216 18.1964 25.0467L15.0184 21.952L12.1319 25.0268C11.8429 25.3266 11.4575 25.4774 11.0716 25.4774C10.7035 25.4774 10.3351 25.3404 10.0493 25.0648C9.46372 24.5001 9.44677 23.5677 10.0114 22.9822L13.1185 19.735C10.8891 19.3036 9.53591 18.2499 9.46622 18.194C8.83165 17.6851 8.72971 16.7581 9.23862 16.1235C9.74746 15.4889 10.6744 15.387 11.3091 15.8958C11.3225 15.9067 12.7378 16.9699 15.0183 16.9715C17.2989 16.9699 18.6849 15.9067 18.6983 15.8958C19.333 15.387 20.2599 15.4889 20.7688 16.1235C21.2777 16.7581 21.1757 17.6851 20.5412 18.194Z" fill="#CACACA"/>
</g>
<defs>
<clipPath>
<rect width="30" height="30" fill="white" transform="matrix(-1 0 0 1 30 0)"/>
</clipPath>
</defs>
</symbol>

<symbol id="icon-social-vk" width="30" height="30" viewBox="0 0 30 30" fill="none">
<path d="M15 0C6.71601 0 0 6.7157 0 15C0 23.2843 6.71601 30 15 30C23.284 30 30 23.2843 30 15C30 6.7157 23.284 0 15 0ZM22.6088 16.6223C23.3079 17.3052 24.0476 17.9478 24.6752 18.7013C24.9533 19.0346 25.2154 19.3792 25.4148 19.7669C25.6996 20.3196 25.4425 20.9257 24.9477 20.9586L21.8747 20.958C21.081 21.0236 20.4494 20.7035 19.9169 20.1609C19.4919 19.7285 19.0975 19.2666 18.6881 18.8194C18.5208 18.6359 18.3447 18.4631 18.1347 18.3272C17.7158 18.0546 17.3518 18.1381 17.1118 18.5758C16.8672 19.0211 16.8114 19.5146 16.788 20.0102C16.7546 20.7348 16.5361 20.9242 15.809 20.9583C14.2555 21.031 12.7814 20.7953 11.4114 20.0121C10.2028 19.3212 9.26732 18.3462 8.45218 17.2423C6.86486 15.0902 5.64921 12.7283 4.55693 10.2985C4.3111 9.7513 4.49095 9.45852 5.09463 9.44716C6.0976 9.42783 7.10056 9.43028 8.10353 9.44624C8.51172 9.45268 8.78179 9.68624 8.93862 10.0714C9.48062 11.4049 10.1451 12.6737 10.9777 13.8503C11.1996 14.1637 11.4261 14.4761 11.7486 14.6974C12.1047 14.9417 12.376 14.861 12.5438 14.4635C12.6513 14.2109 12.6976 13.9409 12.7209 13.6702C12.8007 12.743 12.8102 11.8162 12.6721 10.8927C12.5862 10.3148 12.2612 9.94158 11.6851 9.83233C11.3917 9.77678 11.4347 9.66813 11.5774 9.50056C11.8251 9.21084 12.0571 9.03161 12.5208 9.03161L15.9928 9.031C16.5401 9.13841 16.6628 9.38394 16.7371 9.93514L16.7402 13.7936C16.7337 14.0069 16.8473 14.6391 17.2303 14.7787C17.5372 14.88 17.7398 14.6339 17.9233 14.4396C18.7559 13.556 19.3492 12.5131 19.8804 11.4338C20.1149 10.9577 20.3171 10.4652 20.5136 9.97166C20.6596 9.60675 20.8868 9.42721 21.2986 9.43335L24.6421 9.43734C24.7406 9.43734 24.8406 9.43826 24.9382 9.45514C25.5017 9.55151 25.6561 9.79396 25.4817 10.3436C25.2074 11.2073 24.6743 11.9266 24.1532 12.6479C23.5946 13.4201 22.9989 14.1652 22.4458 14.9408C21.9376 15.6497 21.9778 16.0066 22.6088 16.6223Z" fill="#CACACA"/>
</symbol>

<symbol id="logo" width="191" height="31" viewBox="0 0 191 31" fill="none">
<path d="M43 25V4.00002H48.55V11.8H56.65V4.00002H62.2V25H56.65V16.9H48.55V25H43Z" fill="white"/>
<path d="M65.4859 5.20003C65.4859 4.48002 65.7559 3.88003 66.2959 3.40003C66.8359 2.90002 67.5159 2.65002 68.3359 2.65002C69.1559 2.65002 69.8359 2.90002 70.3759 3.40003C70.9159 3.88003 71.1859 4.48002 71.1859 5.20003C71.1859 5.90003 70.9159 6.50003 70.3759 7.00003C69.8359 7.50002 69.1559 7.75002 68.3359 7.75002C67.5159 7.75002 66.8359 7.50002 66.2959 7.00003C65.7559 6.50003 65.4859 5.90003 65.4859 5.20003ZM65.7859 25V9.40002H70.8859V25H65.7859Z" fill="white"/>
<path d="M75.4541 22.63C74.1141 21.15 73.4441 19.24 73.4441 16.9C73.4441 14.56 74.1141 12.65 75.4541 11.17C76.7941 9.69002 78.4241 8.95003 80.3441 8.95003C81.7241 8.95003 82.9141 9.35003 83.9141 10.15C84.3741 10.51 84.7341 10.91 84.9941 11.35H85.2941V9.40002H90.3941V30.7H75.5441V26.65H85.2941V22.6H84.9941C84.7141 23.04 84.3541 23.42 83.9141 23.74C82.9341 24.48 81.7441 24.85 80.3441 24.85C78.4241 24.85 76.7941 24.11 75.4541 22.63ZM79.5941 14.26C78.9941 14.9 78.6941 15.78 78.6941 16.9C78.6941 18.02 78.9941 18.9 79.5941 19.54C80.1941 20.18 80.9941 20.5 81.9941 20.5C82.9941 20.5 83.7941 20.18 84.3941 19.54C84.9941 18.9 85.2941 18.02 85.2941 16.9C85.2941 15.78 84.9941 14.9 84.3941 14.26C83.7941 13.62 82.9941 13.3 81.9941 13.3C80.9941 13.3 80.1941 13.62 79.5941 14.26Z" fill="white"/>
<path d="M93.3801 25V4.00002H98.4801V11.5H98.7801C99.0601 11.02 99.4201 10.6 99.8601 10.24C100.88 9.38003 102.07 8.95003 103.43 8.95003C105.27 8.95003 106.7 9.51003 107.72 10.63C108.76 11.73 109.28 13.32 109.28 15.4V25H104.18V16.15C104.18 15.25 103.94 14.55 103.46 14.05C102.98 13.55 102.32 13.3 101.48 13.3C100.62 13.3 99.9001 13.62 99.3201 14.26C98.7601 14.88 98.4801 15.71 98.4801 16.75V25H93.3801Z" fill="white"/>
<path d="M120.538 30.7V9.40002H125.638V11.5H125.938C126.218 11.04 126.598 10.62 127.078 10.24C128.178 9.38003 129.348 8.95003 130.588 8.95003C132.508 8.95003 134.138 9.71003 135.478 11.23C136.818 12.73 137.488 14.72 137.488 17.2C137.488 19.68 136.818 21.68 135.478 23.2C134.138 24.7 132.508 25.45 130.588 25.45C129.328 25.45 128.158 25.03 127.078 24.19C126.598 23.81 126.218 23.38 125.938 22.9H125.638V30.7H120.538ZM126.538 14.32C125.938 15 125.638 15.96 125.638 17.2C125.638 18.44 125.938 19.4 126.538 20.08C127.138 20.76 127.938 21.1 128.938 21.1C129.938 21.1 130.738 20.76 131.338 20.08C131.938 19.4 132.238 18.44 132.238 17.2C132.238 15.96 131.938 15 131.338 14.32C130.738 13.64 129.938 13.3 128.938 13.3C127.938 13.3 127.138 13.64 126.538 14.32Z" fill="white"/>
<path d="M141.284 23.2C139.944 21.68 139.274 19.68 139.274 17.2C139.274 14.72 139.944 12.73 141.284 11.23C142.624 9.71003 144.254 8.95003 146.174 8.95003C147.414 8.95003 148.584 9.38003 149.684 10.24C150.144 10.62 150.524 11.04 150.824 11.5H151.124V9.40002H156.224V25H151.124V22.9H150.824C150.544 23.38 150.164 23.81 149.684 24.19C148.604 25.03 147.434 25.45 146.174 25.45C144.254 25.45 142.624 24.7 141.284 23.2ZM145.424 14.32C144.824 15 144.524 15.96 144.524 17.2C144.524 18.44 144.824 19.4 145.424 20.08C146.024 20.76 146.824 21.1 147.824 21.1C148.824 21.1 149.624 20.76 150.224 20.08C150.824 19.4 151.124 18.44 151.124 17.2C151.124 15.96 150.824 15 150.224 14.32C149.624 13.64 148.824 13.3 147.824 13.3C146.824 13.3 146.024 13.64 145.424 14.32Z" fill="white"/>
<path d="M158.31 19.9H163.41C163.49 20.2 163.66 20.48 163.92 20.74C164.46 21.28 165.24 21.55 166.26 21.55C167.66 21.55 168.36 21.2 168.36 20.5C168.36 20.18 168.16 19.93 167.76 19.75C167.36 19.55 166.76 19.35 165.96 19.15C165.3 18.99 164.87 18.89 164.67 18.85C164.47 18.81 164.05 18.7 163.41 18.52C162.77 18.32 162.31 18.15 162.03 18.01C161.77 17.85 161.4 17.63 160.92 17.35C160.46 17.05 160.12 16.75 159.9 16.45C159.7 16.13 159.51 15.74 159.33 15.28C159.15 14.8 159.06 14.29 159.06 13.75C159.06 12.43 159.65 11.3 160.83 10.36C162.01 9.42002 163.67 8.95003 165.81 8.95003C168.49 8.95003 170.61 9.83002 172.17 11.59C172.79 12.35 173.22 13.22 173.46 14.2H168.51C168.39 13.88 168.25 13.63 168.09 13.45C167.63 12.95 166.97 12.7 166.11 12.7C164.91 12.7 164.31 13.05 164.31 13.75C164.31 14.09 164.51 14.35 164.91 14.53C165.31 14.71 165.92 14.88 166.74 15.04C168.8 15.52 170.19 15.94 170.91 16.3C172.71 17.18 173.61 18.53 173.61 20.35C173.61 21.79 172.97 23 171.69 23.98C170.43 24.96 168.62 25.45 166.26 25.45C163.36 25.45 161.15 24.53 159.63 22.69C158.95 21.87 158.51 20.94 158.31 19.9Z" fill="white"/>
<path d="M174.951 19.9H180.051C180.131 20.2 180.301 20.48 180.561 20.74C181.101 21.28 181.881 21.55 182.901 21.55C184.301 21.55 185.001 21.2 185.001 20.5C185.001 20.18 184.801 19.93 184.401 19.75C184.001 19.55 183.401 19.35 182.601 19.15C181.941 18.99 181.511 18.89 181.311 18.85C181.111 18.81 180.691 18.7 180.051 18.52C179.411 18.32 178.951 18.15 178.671 18.01C178.411 17.85 178.041 17.63 177.561 17.35C177.101 17.05 176.761 16.75 176.541 16.45C176.341 16.13 176.151 15.74 175.971 15.28C175.791 14.8 175.701 14.29 175.701 13.75C175.701 12.43 176.291 11.3 177.471 10.36C178.651 9.42002 180.311 8.95003 182.451 8.95003C185.131 8.95003 187.251 9.83002 188.811 11.59C189.431 12.35 189.861 13.22 190.101 14.2H185.151C185.031 13.88 184.891 13.63 184.731 13.45C184.271 12.95 183.611 12.7 182.751 12.7C181.551 12.7 180.951 13.05 180.951 13.75C180.951 14.09 181.151 14.35 181.551 14.53C181.951 14.71 182.561 14.88 183.381 15.04C185.441 15.52 186.831 15.94 187.551 16.3C189.351 17.18 190.251 18.53 190.251 20.35C190.251 21.79 189.611 23 188.331 23.98C187.071 24.96 185.261 25.45 182.901 25.45C180.001 25.45 177.791 24.53 176.271 22.69C175.591 21.87 175.151 20.94 174.951 19.9Z" fill="white"/>
<path fill-rule="evenodd" clip-rule="evenodd" d="M6 6V24H24L6 6ZM0 0V30H30V0H0Z" fill="#FF6E30"/>
</symbol>

<symbol id="phone" width="22" height="22" viewBox="0 0 22 22" fill="none">
<path d="M18.3425 14.0983C17.215 14.0983 16.1242 13.915 15.1067 13.585C14.7858 13.475 14.4283 13.5575 14.1808 13.805L12.7417 15.6108C10.1475 14.3733 7.71833 12.0358 6.42583 9.35L8.21333 7.82833C8.46083 7.57167 8.53417 7.21417 8.43333 6.89333C8.09417 5.87583 7.92 4.785 7.92 3.6575C7.92 3.1625 7.5075 2.75 7.0125 2.75H3.84083C3.34583 2.75 2.75 2.97 2.75 3.6575C2.75 12.1733 9.83583 19.25 18.3425 19.25C18.9933 19.25 19.25 18.6725 19.25 18.1683V15.0058C19.25 14.5108 18.8375 14.0983 18.3425 14.0983Z" fill="#FF6E30"/>
</symbol>

</svg>

<?xml version="1.0" encoding="utf-8"?><svg width="191" height="61" viewBox="0 0 191 61" xmlns="http://www.w3.org/2000/svg" xmlns:xlink="http://www.w3.org/1999/xlink"><svg width="14" height="14" fill="none" viewBox="0 0 14 14" id="calendar-grey" x="82" y="31" xmlns="http://www.w3.org/2000/svg"><g clip-path="url(#aa)"><path d="M11.667 1.75h-.584V.583H9.917V1.75H4.083V.583H2.917V1.75h-.584a1.17 1.17 0 0 0-1.166 1.167v9.333a1.17 1.17 0 0 0 1.166 1.167h9.334a1.17 1.17 0 0 0 1.166-1.167V2.917a1.17 1.17 0 0 0-1.166-1.167Zm0 10.5H2.333V4.667h9.334v7.583Z" fill="#999"/></g><defs><clipPath id="aa"><path fill="#fff" d="M0 0h14v14H0z"/></clipPath></defs></svg><svg width="14" height="14" fill="none" viewBox="0 0 14 14" id="calendar-white" x="96" y="31" xmlns="http://www.w3.org/2000/svg"><g clip-path="url(#ba)"><path d="M11.667 1.75h-.584V.583H9.917V1.75H4.083V.583H2.917V1.75h-.584a1.17 1.17 0 0 0-1.166 1.167v9.333a1.17 1.17 0 0 0 1.166 1.167h9.334a1.17 1.17 0 0 0 1.166-1.167V2.917a1.17 1.17 0 0 0-1.166-1.167Zm0 10.5H2.333V4.667h9.334v7.583Z" fill="#fff"/></g><defs><clipPath id="ba"><path fill="#fff" d="M0 0h14v14H0z"/></clipPath></defs></svg><svg width="30" height="30" fill="none" viewBox="0 0 30 30" id="icon-social-ok" y="31" xmlns="http://www.w3.org/2000/svg"><g clip-path="url(#ca)" fill="#CACACA"><path d="M12.853 9.99a2.24 2.24 0 1 0 4.478 0 2.24 2.24 0 0 0-4.478 0Z"/><path fill-rule="evenodd" clip-rule="evenodd" d="M15 30c8.284 0 15-6.716 15-15 0-8.284-6.716-15-15-15C6.716 0 0 6.716 0 15c0 8.284 6.716 15 15 15ZM9.675 9.99a5.417 5.417 0 1 1 10.834 0 5.417 5.417 0 0 1-10.834 0Zm10.866 8.204c-.069.055-1.368 1.082-3.537 1.524l3.274 3.244a1.473 1.473 0 1 1-2.082 2.085l-3.178-3.095-2.886 3.075c-.29.3-.675.45-1.06.45a1.473 1.473 0 0 1-1.06-2.495l3.107-3.247c-2.23-.431-3.583-1.485-3.653-1.541a1.473 1.473 0 0 1 1.843-2.298c.014.01 1.429 1.074 3.71 1.075 2.28-.001 3.666-1.064 3.68-1.075a1.473 1.473 0 0 1 1.842 2.298Z"/></g><defs><clipPath id="ca"><path fill="#fff" transform="matrix(-1 0 0 1 30 0)" d="M0 0h30v30H0z"/></clipPath></defs></svg><svg width="30" height="30" fill="none" viewBox="0 0 30 30" id="icon-social-vk" x="30" y="31" xmlns="http://www.w3.org/2000/svg"><path d="M15 0C6.716 0 0 6.716 0 15c0 8.284 6.716 15 15 15 8.284 0 15-6.716 15-15 0-8.284-6.716-15-15-15Zm7.609 16.622c.699.683 1.439 1.326 2.066 2.08.278.333.54.677.74 1.065.285.553.027 1.159-.467 1.192l-3.073-.001c-.794.066-1.426-.255-1.958-.797-.425-.433-.82-.894-1.229-1.342a2.871 2.871 0 0 0-.553-.492c-.42-.272-.783-.189-1.023.249-.245.445-.3.939-.324 1.434-.033.725-.252.914-.979.948-1.553.073-3.028-.163-4.398-.946-1.208-.69-2.144-1.666-2.959-2.77-1.587-2.152-2.803-4.514-3.895-6.944-.246-.547-.066-.84.538-.85a85.522 85.522 0 0 1 3.009-.002c.408.007.678.24.835.625.542 1.334 1.206 2.603 2.039 3.78.222.313.448.625.77.846.357.245.628.164.796-.233.107-.253.154-.523.177-.794.08-.927.09-1.854-.049-2.777-.086-.578-.41-.951-.987-1.06-.293-.056-.25-.165-.108-.332.248-.29.48-.47.944-.47h3.472c.547.107.67.353.744.904l.003 3.859c-.006.213.107.845.49.985.307.101.51-.145.693-.34.833-.883 1.426-1.926 1.957-3.005.235-.476.437-.969.634-1.462.146-.365.373-.545.785-.539l3.343.004c.099 0 .199.001.296.018.564.097.718.339.544.889-.275.863-.808 1.583-1.329 2.304-.558.772-1.154 1.517-1.707 2.293-.508.709-.468 1.066.163 1.681Z" fill="#CACACA"/></svg><svg width="191" height="31" fill="none" viewBox="0 0 191 31" id="logo" xmlns="http://www.w3.org/2000/svg"><path d="M43 25V4h5.55v7.8h8.1V4h5.55v21h-5.55v-8.1h-8.1V25H43ZM65.486 5.2c0-.72.27-1.32.81-1.8.54-.5 1.22-.75 2.04-.75.82 0 1.5.25 2.04.75.54.48.81 1.08.81 1.8 0 .7-.27 1.3-.81 1.8s-1.22.75-2.04.75c-.82 0-1.5-.25-2.04-.75s-.81-1.1-.81-1.8Zm.3 19.8V9.4h5.1V25h-5.1ZM75.454 22.63c-1.34-1.48-2.01-3.39-2.01-5.73 0-2.34.67-4.25 2.01-5.73 1.34-1.48 2.97-2.22 4.89-2.22 1.38 0 2.57.4 3.57 1.2.46.36.82.76 1.08 1.2h.3V9.4h5.1v21.3h-14.85v-4.05h9.75V22.6h-.3c-.28.44-.64.82-1.08 1.14-.98.74-2.17 1.11-3.57 1.11-1.92 0-3.55-.74-4.89-2.22Zm4.14-8.37c-.6.64-.9 1.52-.9 2.64s.3 2 .9 2.64c.6.64 1.4.96 2.4.96s1.8-.32 2.4-.96c.6-.64.9-1.52.9-2.64s-.3-2-.9-2.64c-.6-.64-1.4-.96-2.4-.96s-1.8.32-2.4.96ZM93.38 25V4h5.1v7.5h.3c.28-.48.64-.9 1.08-1.26 1.02-.86 2.21-1.29 3.57-1.29 1.84 0 3.27.56 4.29 1.68 1.04 1.1 1.56 2.69 1.56 4.77V25h-5.1v-8.85c0-.9-.24-1.6-.72-2.1s-1.14-.75-1.98-.75c-.86 0-1.58.32-2.16.96-.56.62-.84 1.45-.84 2.49V25h-5.1ZM120.538 30.7V9.4h5.1v2.1h.3c.28-.46.66-.88 1.14-1.26 1.1-.86 2.27-1.29 3.51-1.29 1.92 0 3.55.76 4.89 2.28 1.34 1.5 2.01 3.49 2.01 5.97 0 2.48-.67 4.48-2.01 6-1.34 1.5-2.97 2.25-4.89 2.25-1.26 0-2.43-.42-3.51-1.26a4.61 4.61 0 0 1-1.14-1.29h-.3v7.8h-5.1Zm6-16.38c-.6.68-.9 1.64-.9 2.88s.3 2.2.9 2.88c.6.68 1.4 1.02 2.4 1.02s1.8-.34 2.4-1.02c.6-.68.9-1.64.9-2.88s-.3-2.2-.9-2.88c-.6-.68-1.4-1.02-2.4-1.02s-1.8.34-2.4 1.02ZM141.284 23.2c-1.34-1.52-2.01-3.52-2.01-6s.67-4.47 2.01-5.97c1.34-1.52 2.97-2.28 4.89-2.28 1.24 0 2.41.43 3.51 1.29.46.38.84.8 1.14 1.26h.3V9.4h5.1V25h-5.1v-2.1h-.3c-.28.48-.66.91-1.14 1.29-1.08.84-2.25 1.26-3.51 1.26-1.92 0-3.55-.75-4.89-2.25Zm4.14-8.88c-.6.68-.9 1.64-.9 2.88s.3 2.2.9 2.88c.6.68 1.4 1.02 2.4 1.02s1.8-.34 2.4-1.02c.6-.68.9-1.64.9-2.88s-.3-2.2-.9-2.88c-.6-.68-1.4-1.02-2.4-1.02s-1.8.34-2.4 1.02ZM158.31 19.9h5.1c.08.3.25.58.51.84.54.54 1.32.81 2.34.81 1.4 0 2.1-.35 2.1-1.05 0-.32-.2-.57-.6-.75-.4-.2-1-.4-1.8-.6-.66-.16-1.09-.26-1.29-.3-.2-.04-.62-.15-1.26-.33-.64-.2-1.1-.37-1.38-.51-.26-.16-.63-.38-1.11-.66-.46-.3-.8-.6-1.02-.9-.2-.32-.39-.71-.57-1.17-.18-.48-.27-.99-.27-1.53 0-1.32.59-2.45 1.77-3.39 1.18-.94 2.84-1.41 4.98-1.41 2.68 0 4.8.88 6.36 2.64a6.53 6.53 0 0 1 1.29 2.61h-4.95c-.12-.32-.26-.57-.42-.75-.46-.5-1.12-.75-1.98-.75-1.2 0-1.8.35-1.8 1.05 0 .34.2.6.6.78.4.18 1.01.35 1.83.51 2.06.48 3.45.9 4.17 1.26 1.8.88 2.7 2.23 2.7 4.05 0 1.44-.64 2.65-1.92 3.63-1.26.98-3.07 1.47-5.43 1.47-2.9 0-5.11-.92-6.63-2.76a6.113 6.113 0 0 1-1.32-2.79ZM174.951 19.9h5.1c.08.3.25.58.51.84.54.54 1.32.81 2.34.81 1.4 0 2.1-.35 2.1-1.05 0-.32-.2-.57-.6-.75-.4-.2-1-.4-1.8-.6-.66-.16-1.09-.26-1.29-.3-.2-.04-.62-.15-1.26-.33-.64-.2-1.1-.37-1.38-.51-.26-.16-.63-.38-1.11-.66-.46-.3-.8-.6-1.02-.9-.2-.32-.39-.71-.57-1.17-.18-.48-.27-.99-.27-1.53 0-1.32.59-2.45 1.77-3.39 1.18-.94 2.84-1.41 4.98-1.41 2.68 0 4.8.88 6.36 2.64a6.53 6.53 0 0 1 1.29 2.61h-4.95c-.12-.32-.26-.57-.42-.75-.46-.5-1.12-.75-1.98-.75-1.2 0-1.8.35-1.8 1.05 0 .34.2.6.6.78.4.18 1.01.35 1.83.51 2.06.48 3.45.9 4.17 1.26 1.8.88 2.7 2.23 2.7 4.05 0 1.44-.64 2.65-1.92 3.63-1.26.98-3.07 1.47-5.43 1.47-2.9 0-5.11-.92-6.63-2.76a6.113 6.113 0 0 1-1.32-2.79Z" fill="#fff"/><path fill-rule="evenodd" clip-rule="evenodd" d="M6 6v18h18L6 6ZM0 0v30h30V0H0Z" fill="#FF6E30"/></svg><svg width="22" height="22" fill="none" viewBox="0 0 22 22" id="phone" x="60" y="31" xmlns="http://www.w3.org/2000/svg"><path d="M18.343 14.098a10.49 10.49 0 0 1-3.236-.513.896.896 0 0 0-.926.22l-1.44 1.806c-2.593-1.238-5.023-3.575-6.315-6.261l1.787-1.522a.935.935 0 0 0 .22-.935 10.223 10.223 0 0 1-.513-3.235.916.916 0 0 0-.907-.908H3.84c-.495 0-1.091.22-1.091.908 0 8.515 7.086 15.592 15.593 15.592.65 0 .907-.578.907-1.082v-3.162a.916.916 0 0 0-.907-.908Z" fill="#FF6E30"/></svg></svg>
